docs/images/icons/Alfa.svg

<svg width="14" height="20" viewBox="0 0 14 20" fill="none" xmlns="http://www.w3.org/2000/svg">
<path id="Alfa" fill-rule="evenodd" clip-rule="evenodd" d="M7.08875 0.500488C8.46187 0.500488 8.90468 1.4299 9.2703 2.35932C9.36212 2.59049 10.6881 5.99307 11.7582 8.74016V8.74174L11.7614 8.74965L13.1158 12.2235C13.1258 12.2471 13.1304 12.2725 13.1295 12.2981C13.1287 12.3236 13.1223 12.3487 13.1108 12.3716C13.0993 12.3945 13.0829 12.4149 13.0628 12.4312C13.0427 12.4476 13.0192 12.4596 12.994 12.4665C12.9306 12.4863 12.5113 12.6407 12.0645 12.8038C11.5323 12.9993 10.9611 13.2091 10.9026 13.2242C10.8527 13.2394 10.7988 13.2362 10.7511 13.2152C10.7034 13.1942 10.6654 13.1568 10.6442 13.1102C10.6223 13.0627 10.4395 12.5892 10.2445 12.081C10.0267 11.5157 9.79193 10.9069 9.74399 10.7937H4.43352C4.13104 11.565 3.83095 12.3371 3.53327 13.1102C3.50321 13.1957 3.38134 13.2669 3.27409 13.2242C3.22046 13.2028 2.72484 13.0239 2.22922 12.8457C1.73359 12.6668 1.23797 12.4879 1.18353 12.4665C1.13584 12.448 1.09692 12.4129 1.07439 12.368C1.05185 12.323 1.04731 12.2715 1.06166 12.2235C1.19978 11.8807 4.72358 2.83116 4.9072 2.35932C5.25739 1.44415 5.71563 0.500488 7.08875 0.500488ZM0.787036 16.9561C0.760573 16.9565 0.734453 16.962 0.710168 16.9722C0.685883 16.9825 0.663909 16.9973 0.645499 17.0158C0.627089 17.0343 0.612605 17.0562 0.602874 17.0802C0.593143 17.1042 0.588357 17.1298 0.588787 17.1556V19.301C0.588787 19.415 0.680599 19.5005 0.787036 19.5005H13.3905C13.417 19.5001 13.4432 19.4946 13.4675 19.4843C13.4919 19.474 13.5139 19.4591 13.5323 19.4405C13.5507 19.4219 13.5652 19.3999 13.5749 19.3758C13.5845 19.3517 13.5893 19.326 13.5887 19.3002V17.1556C13.5891 17.1298 13.5844 17.1042 13.5746 17.0802C13.5649 17.0562 13.5504 17.0343 13.532 17.0158C13.5136 16.9973 13.4916 16.9825 13.4673 16.9722C13.4431 16.962 13.4169 16.9565 13.3905 16.9561H0.787036ZM5.28826 8.54936L7.08875 3.50249H7.10419L8.90468 8.54936H5.28907H5.28826Z" fill="#C9C9C9"/>
</svg>

<svg width="14" height="20" fill="none" xmlns="http://www.w3.org/2000/svg"><path fill-rule="evenodd" clip-rule="evenodd" d="M7.089.5c1.373 0 1.816.93 2.181 1.86.092.23 1.418 3.633 2.488 6.38v.002l.003.008 1.355 3.473a.175.175 0 0 1-.005.149.182.182 0 0 1-.117.095c-.063.02-.483.174-.93.337-.532.195-1.103.405-1.161.42a.219.219 0 0 1-.152-.009.21.21 0 0 1-.107-.105 66.559 66.559 0 0 1-.4-1.029 96.166 96.166 0 0 0-.5-1.287h-5.31c-.303.771-.603 1.543-.9 2.316a.208.208 0 0 1-.26.114c-.054-.021-.55-.2-1.045-.378a158.65 158.65 0 0 1-1.045-.38.204.204 0 0 1-.11-.098.196.196 0 0 1-.012-.145c.138-.342 3.662-9.392 3.845-9.864C5.257 1.444 5.716.5 7.09.5ZM.787 16.956a.207.207 0 0 0-.142.06.195.195 0 0 0-.056.14V19.3c0 .114.092.2.198.2H13.39a.205.205 0 0 0 .142-.06.196.196 0 0 0 .057-.14v-2.145a.191.191 0 0 0-.057-.14.203.203 0 0 0-.142-.06H.787ZM5.288 8.55l1.8-5.047h.016l1.8 5.047H5.29Z" fill="#C9C9C9"/></svg>
